X:1
T:Title
%%score ( 1 2 ) ( 3 4 )
L:1/8
Q:1/4=90
M:3/4
K:Ab
V:1 treble nm="Midi_20"
V:2 treble 
V:3 bass nm="Midi_20"
V:4 bass 
V:1
"^Bede (11 10. 11 10.)""^John Goss\n(1800-80)" A2 G2 A2 | e2 d2 c2 | B2 AG AB | A4 G2 || A2 G2 A2 | %5
 B2 c2 A2 | GF F3 E | E6 ||[M:3/4] e2 F2 GA | G3 F E2 | e2 F2 GA | (G3 F) E2 || A2 G2 A2 | %13
 B2 c2 d2 | cB B3 A | A6 |] %16
V:2
 E2 E2 E2 | E2 G2 A2 | F2 E2 =D2 | E4 E2 || E2 E2 E2 | E2 E2 E2 | E2 E2 =D2 | E6 || %8
[M:3/4] E2 F2 D2 | B,2 B,2 E2 | E2 F2 D2 | B,4 E2 || E2 E2 E2 | E2 E2 D2 | F2 B,C D2 | C6 |] %16
V:3
 C2 D2 C2 | B,2 B,2 C2 | D2 C2 B,2 | B,4 B,2 || C2 D2 C2 | B,2 G,2 A,2 | C2 F,G, A,2 | G,6 || %8
[M:3/4] A,2 A,2 B,2 | B,2 E,F, G,2 | A,2 A,2 B,2 | (B,3 A,) G,2 || C2 D2 C2 | B,2 G,2 A,2 | %14
 A,2 A,2 G,2 | A,6 |] %16
V:4
 A,2 B,2 A,2 | G,2 E,2 A,2 | D,2 E,2 F,2 | E,4 E,2 || C2 B,2 A,2 | G,2 E,2 C,2 | A,,2 B,,2 B,,2 | %7
 E,6 ||[M:3/4] C,2 D,2 B,,2 | E,2 E,2 D,2 | C,2 D,2 B,,2 | E,4 E,2 || C2 B,2 A,2 | G,2 E,2 F,2 | %14
 D,2 E,2 E,2 | A,,6 |] %16

